X: 2603
T: Balquhidder Lasses, The
R: reel
M: 4/4
K: Dmajor
BA|G2 E2 EFGA|B2 B2 e2 B2|d2 A2 ABAF|DEFG A2 BA|
G2 E2 EFGA|B2 B2 e2 B2|d2 A2 BAGF|E6:|
B2|e^def e2 B2|efgf e2 Bc|d2 d2 dAFA|DEFG A2 B2|
e^def e2 B2|efgf e2 Bc|d2 A2 BAGF|E6 B2|
e^def e2 B2|efgf e2 Bc|d2 d2 dAFA|DEFG A2 BA|
G2 FG EFGA|B2 B2 e4|d2 A2 BAGF|E6||
BA|G2 FG EFGA|B2 B2 e3 e|d2 A2 ABAG|DEFG A2 BA|
G2 FG EFGA|B2 B2 e3 e|d2 A2 BAGF|E6:|
B2|e2 ef e2 B2|efgf e2 Bc|d2 de dAFA|DEFG A2 B2|
e2 ef e2 B2|efgf e2 Bc|d2 A2 BAGF|E6 B2|
e2 ef e2 B2|efgf e2 Bc|d2 de dAFA|DEFG A2 BA|
G2 FG EFGA|B2 B2 e3 e|d2 A2 BAGF|E6||
GF|E2 B,2 E2 EF|GAGE G3 G|F2 F4 (D2|D)CDE F2 GF|
E2 B,2 E2 EF|G4 GBAG|FD A,D E2 B,2|E6:|
EF|GABA G2 F(G/A/)|G2 E4 DE|FGAG F2 (D2|D2) DEF2 BA|
GABA G2 F(G/A/)|G2 E4 EG|FD A,D E2 B,2|E6 EF|
GABA G2 F(G/A/)|G2 E4 DE|FGAG F2 (D2|D2) DEF2 GF|
E2 B,2 E2 EF|G4 GBAG|FD A,D E2 B,2|E6||

